package/converter/svg/light/album.svg

<svg xmlns="http://www.w3.org/2000/svg" viewBox="0 0 448 512"><!-- Font Awesome Pro 6.0.0-alpha2 by @fontawesome - https://fontawesome.com License - https://fontawesome.com/license (Commercial License) --><path d="M224 232C210.75 232 200 242.75 200 256S210.75 280 224 280S248 269.25 248 256S237.25 232 224 232ZM384 32H64C28.801 32 0 60.799 0 96V416C0 451.199 28.801 480 64 480H384C419.199 480 448 451.199 448 416V96C448 60.799 419.199 32 384 32ZM416 416C416 433.645 401.645 448 384 448H64C46.355 448 32 433.645 32 416V96C32 78.355 46.355 64 64 64H384C401.645 64 416 78.355 416 96V416ZM224 96C135.75 96 64 167.75 64 256S135.75 416 224 416S384 344.25 384 256S312.25 96 224 96ZM224 384C153.42 384 96 326.578 96 256C96 185.42 153.42 128 224 128S352 185.42 352 256C352 326.578 294.58 384 224 384Z"/></svg>

<svg xmlns="http://www.w3.org/2000/svg" viewBox="0 0 448 512"><!--! Font Awesome Pro 6.6.0 by @fontawesome - https://fontawesome.com License - https://fontawesome.com/license (Commercial License) Copyright 2024 Fonticons, Inc. --><path d="M384 64c17.7 0 32 14.3 32 32l0 320c0 17.7-14.3 32-32 32L64 448c-17.7 0-32-14.3-32-32L32 96c0-17.7 14.3-32 32-32l320 0zM64 32C28.7 32 0 60.7 0 96L0 416c0 35.3 28.7 64 64 64l320 0c35.3 0 64-28.7 64-64l0-320c0-35.3-28.7-64-64-64L64 32zm160 96a128 128 0 1 1 0 256 128 128 0 1 1 0-256zm0 288a160 160 0 1 0 0-320 160 160 0 1 0 0 320zm0-136a24 24 0 1 0 0-48 24 24 0 1 0 0 48z"/></svg>
